Dominus_Dark_Funeral/22/apps/vmware-player.svg

<svg xmlns="http://www.w3.org/2000/svg" width="24" height="24" viewBox="0 0 6.35 6.35"><defs><linearGradient id="a"><stop offset="0" stop-color="#000003"/><stop offset="1" stop-color="#00000a" stop-opacity="0"/></linearGradient><linearGradient id="b"><stop offset="0" stop-color="#000004"/><stop offset="1" stop-opacity="0"/></linearGradient></defs><path d="M3.84.35a.38.38 0 0 0 0 .75h.88l-.75.74h-.64v.74h.15c.3 0 .3 0 .3.3v.15h.74v-.68l.75-.74v.9a.37.37 0 0 0 .74 0V.72a.38.38 0 0 0-.37-.38H3.83zM.72.36C.52.36.34.52.34.73v1.78a.38.38 0 0 0 .75 0v-.9l.74.74v.69h.75v-.16c0-.3 0-.3.3-.3h.14v-.74h-.64l-.75-.74h.87a.37.37 0 1 0 0-.74H.73zm3.05 2.96v.16c0 .3 0 .3-.3.3h-.15v.74h.65l.75.74h-.89a.37.37 0 0 0 0 .75h1.8c.2 0 .37-.17.37-.37V3.85a.37.37 0 0 0-.74 0v.9l-.75-.74v-.69zm-1.94.01v.74c0 .25.2.45.45.45h.75v-.74h-.3c-.15 0-.15 0-.15-.15v-.3z" fill="#e6e6e6"/></svg>

<?xml version="1.0" encoding="UTF-8" standalone="no"?>
<svg
   xmlns:dc="http://purl.org/dc/elements/1.1/"
   xmlns:cc="http://creativecommons.org/ns#"
   xmlns:rdf="http://www.w3.org/1999/02/22-rdf-syntax-ns#"
   xmlns:svg="http://www.w3.org/2000/svg"
   xmlns="http://www.w3.org/2000/svg"
   xmlns:sodipodi="http://sodipodi.sourceforge.net/DTD/sodipodi-0.dtd"
   xmlns:inkscape="http://www.inkscape.org/namespaces/inkscape"
   width="24"
   height="24"
   viewBox="0 0 6.35 6.35"
   version="1.1"
   id="svg16"
   sodipodi:docname="vmware-player.svg"
   inkscape:version="0.92.4 (5da689c313, 2019-01-14)">
  <metadata
     id="metadata20">
    <rdf:RDF>
      <cc:Work
         rdf:about="">
        <dc:format>image/svg+xml</dc:format>
        <dc:type
           rdf:resource="http://purl.org/dc/dcmitype/StillImage" />
        <dc:title></dc:title>
      </cc:Work>
    </rdf:RDF>
  </metadata>
  <sodipodi:namedview
     pagecolor="#ffffff"
     bordercolor="#666666"
     borderopacity="1"
     objecttolerance="10"
     gridtolerance="10"
     guidetolerance="10"
     inkscape:pageopacity="0"
     inkscape:pageshadow="2"
     inkscape:window-width="1138"
     inkscape:window-height="480"
     id="namedview18"
     showgrid="false"
     inkscape:zoom="9.8333333"
     inkscape:cx="1.0677966"
     inkscape:cy="12"
     inkscape:window-x="0"
     inkscape:window-y="25"
     inkscape:window-maximized="0"
     inkscape:current-layer="svg16" />
  <defs
     id="defs12">
    <linearGradient
       id="a">
      <stop
         offset="0"
         stop-color="#000003"
         id="stop2" />
      <stop
         offset="1"
         stop-color="#00000a"
         stop-opacity="0"
         id="stop4" />
    </linearGradient>
    <linearGradient
       id="b">
      <stop
         offset="0"
         stop-color="#000004"
         id="stop7" />
      <stop
         offset="1"
         stop-opacity="0"
         id="stop9" />
    </linearGradient>
  </defs>
  <path
     d="m 3.84,0.35 a 0.38,0.38 0 0 0 0,0.75 H 4.72 L 3.97,1.84 H 3.33 v 0.74 h 0.15 c 0.3,0 0.3,0 0.3,0.3 V 3.03 H 4.52 V 2.35 L 5.27,1.61 v 0.9 a 0.37,0.37 0 0 0 0.74,0 V 0.72 A 0.38,0.38 0 0 0 5.64,0.34 H 3.83 Z M 0.72,0.36 c -0.2,0 -0.38,0.16 -0.38,0.37 v 1.78 a 0.38,0.38 0 0 0 0.75,0 V 1.61 L 1.83,2.35 V 3.04 H 2.58 V 2.88 c 0,-0.3 0,-0.3 0.3,-0.3 H 3.02 V 1.84 H 2.38 L 1.63,1.1 H 2.5 a 0.37,0.37 0 1 0 0,-0.74 H 0.73 Z m 3.05,2.96 v 0.16 c 0,0.3 0,0.3 -0.3,0.3 H 3.32 V 4.52 H 3.97 L 4.72,5.26 H 3.83 a 0.375,0.375 0 0 0 0,0.75 h 1.8 C 5.83,6.01 6,5.84 6,5.64 V 3.85 a 0.37,0.37 0 0 0 -0.74,0 v 0.9 L 4.51,4.01 V 3.32 Z M 1.83,3.33 v 0.74 c 0,0.25 0.2,0.45 0.45,0.45 H 3.03 V 3.78 h -0.3 c -0.15,0 -0.15,0 -0.15,-0.15 v -0.3 z"
     id="path14"
     inkscape:connector-curvature="0"
     style="fill:#e6e6e6" />
</svg>
